X: 451	% 129
T: Arizona's Pioneer Schottische
S: Viola Ruth "Pioneer Western Folk Tunes" 1948 p.45 #1
R: shottish
Z: 2019 John Chambers <jc:trillian.mit.edu>
M: 4/4
L: 1/8
K: D
V: 1 name="129"
|:\
([f3d3]e) ([f3d3]e) | d>AF>G A4 | A>Bc>d e>fg>a | b>aa>^g a3=g | ([f3d3]e) ([f3d3]e) | d>AF>G A4 |
A>Bc>d e>f (3(gfe) | [d2F2][f2d2] [d2F2]z2 || !gliss!{a}Kd'2 !gliss![f2d2]Ka2d2 | [fd]>ed>B A4 | A>Bc>d e>fg>a |
b>aa>^g a2z2 | !gliss!{a}d'2 !gliss![f2d2]a2d2 | f>ed>B A4 | A>Bc>d e>f (3(gfe) |[1 K[d2F2]K[f2d2] K[d3F3]e :|[2 [d2F2][a2c2] [d'2f2]z2 |]
